public/pointer.svg

<svg width="58" height="56" viewBox="0 0 58 56" fill="none" xmlns="http://www.w3.org/2000/svg">
<g filter="url(#filter0_d_1041_14874)">
<path d="M21.3927 33.9068L6.69672 19.2108C5.52515 18.0392 5.52515 16.1397 6.69672 14.9681C7.86829 13.7966 9.76779 13.7966 10.9394 14.9681L18.0104 22.0392C16.8389 20.8676 16.8389 18.9681 18.0104 17.7966C19.182 16.625 21.0815 16.625 22.2531 17.7966L23.298 18.8415C22.139 17.6656 21.7938 15.4274 22.9602 14.261C24.1318 13.0895 26.0312 13.0895 27.2028 14.261L29.3241 16.3823C28.1526 15.2108 28.1526 13.3113 29.3241 12.1397C30.4957 10.9681 32.3952 10.9681 33.5668 12.1397L35.6881 14.261L44.1734 22.7463C45.1584 23.7313 46.8505 25.8387 46.986 30.7658C47.0066 31.5157 47.2998 32.2367 47.8302 32.7671C48.9348 33.8717 48.9348 35.6626 47.8302 36.7671L40.9028 43.6946C39.9754 44.6219 38.4718 44.6219 37.5445 43.6946C37.0408 43.1909 36.3393 42.9453 35.628 42.9817C33.334 43.099 28.7152 42.8816 26.6706 41.8158C26.2037 41.5723 25.748 41.2854 25.2393 41.1491L14.7401 38.3359C13.1397 37.9071 12.19 36.262 12.6188 34.6617C13.0476 33.0613 14.6927 32.1115 16.2931 32.5403L18.8429 33.2236L21.2316 34.1536C21.3835 34.2127 21.508 34.022 21.3927 33.9068Z" fill="black"/>
<path d="M27.2028 22.7463L26.4957 23.4534C26.8862 23.8439 27.5194 23.8439 27.9099 23.4534C28.3004 23.0629 28.3004 22.4297 27.9099 22.0392L27.2028 22.7463ZM23.3137 18.8573L22.6066 19.5644L22.6066 19.5644L23.3137 18.8573ZM30.7384 19.2108C31.1289 19.6013 31.762 19.6013 32.1526 19.2108C32.5431 18.8203 32.5431 18.1871 32.1526 17.7966L30.7384 19.2108ZM22.2531 27.6961C22.6436 28.0866 23.2768 28.0866 23.6673 27.6961C24.0578 27.3055 24.0578 26.6724 23.6673 26.2818L22.2531 27.6961ZM25.2393 41.1491L25.4981 40.1832L25.4981 40.1832L25.2393 41.1491ZM14.7401 38.3359L14.999 37.37L14.999 37.37L14.7401 38.3359ZM16.2931 32.5403L16.5519 31.5744L16.5519 31.5744L16.2931 32.5403ZM46.986 30.7658L47.9856 30.7383L47.9856 30.7383L46.986 30.7658ZM35.628 42.9817L35.679 43.9804L35.679 43.9804L35.628 42.9817ZM26.6706 41.8158L27.1329 40.929L27.1329 40.929L26.6706 41.8158ZM18.8429 33.2236L19.2057 32.2917L19.1546 32.2718L19.1017 32.2576L18.8429 33.2236ZM21.2316 34.1536L21.5944 33.2217L21.5944 33.2217L21.2316 34.1536ZM22.0998 33.1997L7.40383 18.5037L5.98962 19.9179L20.6856 34.6139L22.0998 33.1997ZM18.7175 18.5037C19.4986 17.7226 20.7649 17.7226 21.546 18.5037L22.9602 17.0895C21.3981 15.5274 18.8654 15.5274 17.3033 17.0895L18.7175 18.5037ZM17.3033 17.0895C15.7412 18.6516 15.7412 21.1842 17.3033 22.7463L18.7175 21.3321C17.9365 20.551 17.9365 19.2847 18.7175 18.5037L17.3033 17.0895ZM27.9099 22.0392L24.0208 18.1502L22.6066 19.5644L26.4957 23.4534L27.9099 22.0392ZM23.6673 14.9681C24.4483 14.1871 25.7147 14.1871 26.4957 14.9681L27.9099 13.5539C26.3478 11.9918 23.8152 11.9918 22.2531 13.5539L23.6673 14.9681ZM22.2531 13.5539C21.3983 14.4087 21.1563 15.5918 21.2621 16.6474C21.3679 17.7039 21.8306 18.7772 22.5859 19.5435L24.0102 18.1395C23.6065 17.7299 23.317 17.0962 23.2521 16.448C23.1871 15.7989 23.3557 15.2797 23.6673 14.9681L22.2531 13.5539ZM22.5859 19.5435C22.5927 19.5505 22.5996 19.5575 22.6066 19.5644L24.0208 18.1502C24.0173 18.1466 24.0137 18.1431 24.0102 18.1396L22.5859 19.5435ZM32.8597 12.8468L34.981 14.9681L36.3952 13.5539L34.2739 11.4326L32.8597 12.8468ZM32.1526 17.7966L30.0312 15.6752L28.617 17.0895L30.7384 19.2108L32.1526 17.7966ZM30.0312 12.8468C30.8123 12.0658 32.0786 12.0658 32.8597 12.8468L34.2739 11.4326C32.7118 9.8705 30.1791 9.8705 28.617 11.4326L30.0312 12.8468ZM28.617 11.4326C27.0549 12.9947 27.0549 15.5274 28.617 17.0895L30.0312 15.6752C29.2502 14.8942 29.2502 13.6279 30.0312 12.8468L28.617 11.4326ZM10.2323 15.6752L17.3033 22.7463L18.7175 21.3321L11.6465 14.261L10.2323 15.6752ZM17.3033 22.7463L22.2531 27.6961L23.6673 26.2818L18.7175 21.3321L17.3033 22.7463ZM25.4981 40.1832L14.999 37.37L14.4813 39.3018L24.9805 42.115L25.4981 40.1832ZM13.5847 34.9205C13.8706 33.8535 14.9673 33.2204 16.0342 33.5063L16.5519 31.5744C14.418 31.0026 12.2247 32.269 11.6529 34.4028L13.5847 34.9205ZM11.6529 34.4028C11.0811 36.5367 12.3475 38.73 14.4813 39.3018L14.999 37.37C13.932 37.0841 13.2989 35.9874 13.5847 34.9205L11.6529 34.4028ZM34.981 14.9681L43.4663 23.4534L44.8805 22.0392L36.3952 13.5539L34.981 14.9681ZM43.4663 23.4534C44.2829 24.2701 45.8584 26.1389 45.9864 30.7933L47.9856 30.7383C47.8426 25.5385 46.0338 23.1926 44.8805 22.0392L43.4663 23.4534ZM47.1231 36.06L40.1957 42.9875L41.6099 44.4017L48.5373 37.4742L47.1231 36.06ZM35.5769 41.983C34.4819 42.039 32.8047 42.0154 31.1572 41.8476C29.4709 41.6757 27.9725 41.3667 27.1329 40.929L26.2084 42.7025C27.4133 43.3306 29.2466 43.6632 30.9544 43.8373C32.701 44.0152 34.4801 44.0417 35.679 43.9804L35.5769 41.983ZM38.2516 42.9875C37.5314 42.2673 36.5468 41.9334 35.5769 41.983L35.679 43.9804C36.1318 43.9572 36.5502 44.1145 36.8374 44.4017L38.2516 42.9875ZM40.1957 42.9875C39.6588 43.5243 38.7884 43.5243 38.2516 42.9875L36.8374 44.4017C38.1553 45.7196 40.292 45.7196 41.6099 44.4017L40.1957 42.9875ZM47.1231 33.4742C47.8372 34.1883 47.8372 35.346 47.1231 36.06L48.5373 37.4742C50.0324 35.9791 50.0324 33.5551 48.5373 32.06L47.1231 33.4742ZM45.9864 30.7933C46.0136 31.7833 46.4012 32.7523 47.1231 33.4742L48.5373 32.06C48.1984 31.7211 47.9996 31.2481 47.9856 30.7383L45.9864 30.7933ZM16.0342 33.5063L18.5841 34.1895L19.1017 32.2576L16.5519 31.5744L16.0342 33.5063ZM18.4801 34.1554L20.8688 35.0854L21.5944 33.2217L19.2057 32.2917L18.4801 34.1554ZM26.4957 14.9681L28.617 17.0895L30.0312 15.6752L27.9099 13.5539L26.4957 14.9681ZM21.546 18.5037L22.5909 19.5486L24.0051 18.1344L22.9602 17.0895L21.546 18.5037ZM22.5909 19.5486L24.0208 20.9785L25.4351 19.5643L24.0051 18.1344L22.5909 19.5486ZM24.0208 20.9785L26.4957 23.4534L27.9099 22.0392L25.4351 19.5643L24.0208 20.9785ZM20.8688 35.0854C22.0293 35.5372 22.9804 34.0802 22.0998 33.1997L20.6856 34.6139C20.0355 33.9638 20.7377 32.8881 21.5944 33.2217L20.8688 35.0854ZM24.9805 42.115C25.3487 42.2137 25.6406 42.4065 26.2084 42.7025L27.1329 40.929C26.7667 40.7381 26.1472 40.3571 25.4981 40.1832L24.9805 42.115ZM7.40383 15.6752C8.18488 14.8942 9.45121 14.8942 10.2323 15.6752L11.6465 14.261C10.0844 12.6989 7.55171 12.6989 5.98961 14.261L7.40383 15.6752ZM5.98961 14.261C4.42752 15.8231 4.42752 18.3558 5.98962 19.9179L7.40383 18.5037C6.62278 17.7226 6.62278 16.4563 7.40383 15.6752L5.98961 14.261Z" fill="white"/>
</g>
<line x1="26.4142" y1="31.4853" x2="32.7782" y2="37.8493" stroke="white" stroke-width="2" stroke-linecap="round"/>
<line x1="30.6564" y1="27.2427" x2="37.0204" y2="33.6066" stroke="white" stroke-width="2" stroke-linecap="round"/>
<line x1="34.8986" y1="23" x2="41.2626" y2="29.364" stroke="white" stroke-width="2" stroke-linecap="round"/>
<defs>
<filter id="filter0_d_1041_14874" x="0.816406" y="10.261" width="52.8438" height="43.129" filterUnits="userSpaceOnUse" color-interpolation-filters="sRGB">
<feFlood flood-opacity="0" result="BackgroundImageFix"/>
<feColorMatrix in="SourceAlpha" type="matrix" values="0 0 0 0 0 0 0 0 0 0 0 0 0 0 0 0 0 0 127 0" result="hardAlpha"/>
<feOffset dy="4"/>
<feGaussianBlur stdDeviation="2"/>
<feComposite in2="hardAlpha" operator="out"/>
<feColorMatrix type="matrix" values="0 0 0 0 0 0 0 0 0 0 0 0 0 0 0 0 0 0 0.25 0"/>
<feBlend mode="normal" in2="BackgroundImageFix" result="effect1_dropShadow_1041_14874"/>
<feBlend mode="normal" in="SourceGraphic" in2="effect1_dropShadow_1041_14874" result="shape"/>
</filter>
</defs>
</svg>

<svg xmlns="http://www.w3.org/2000/svg" fill="none" viewBox="0 4 58 56" height="56" width="58"><g filter="url(#a)"><path fill="#000" d="M21.393 33.907 6.697 19.21a3 3 0 0 1 4.242-4.243l7.071 7.071a3 3 0 0 1 4.243-4.242l1.045 1.044c-1.159-1.175-1.504-3.414-.338-4.58a3 3 0 0 1 4.243 0l2.121 2.121a3 3 0 0 1 4.243-4.242l2.121 2.121 8.485 8.485c.985.985 2.677 3.093 2.813 8.02.02.75.314 1.47.844 2.001a2.828 2.828 0 0 1 0 4l-6.927 6.928a2.375 2.375 0 0 1-3.358 0 2.517 2.517 0 0 0-1.917-.713c-2.294.117-6.913-.1-8.957-1.166-.467-.244-.923-.53-1.432-.667L14.74 38.336a3 3 0 1 1 1.553-5.796l2.55.684 2.389.93c.152.059.276-.132.16-.247Z"/><path fill="#fff" d="m27.203 22.746-.707.707a1 1 0 0 0 1.414-1.414l-.707.707Zm-3.89-3.889-.706.707.707-.707Zm7.425.354a1 1 0 0 0 1.415-1.414l-1.415 1.414Zm-8.485 8.485a1 1 0 0 0 1.414-1.414l-1.414 1.414ZM25.24 41.15l.26-.966-.26.966ZM14.74 38.336 15 37.37l-.259.966Zm1.553-5.796.259-.966-.259.966Zm30.693-1.774 1-.028-1 .028ZM35.628 42.982l.051.998-.051-.998Zm-8.957-1.166.462-.887-.462.887Zm-7.828-8.592.363-.932-.051-.02-.053-.014-.26.966Zm2.389.93.362-.932-.362.932Zm.868-.954L7.404 18.504 5.99 19.918l14.696 14.696L22.1 33.2Zm-3.383-14.696a2 2 0 0 1 2.829 0l1.414-1.415a4 4 0 0 0-5.657 0l1.415 1.415Zm-1.414-1.415a4 4 0 0 0 0 5.657l1.415-1.414a2 2 0 0 1 0-2.828l-1.415-1.415Zm10.607 4.95-3.89-3.889-1.413 1.414 3.889 3.89 1.414-1.415Zm-4.243-7.07a2 2 0 0 1 2.829 0l1.414-1.415a4 4 0 0 0-5.657 0l1.414 1.414Zm-1.414-1.415c-.855.855-1.097 2.038-.99 3.093.105 1.057.568 2.13 1.323 2.897l1.424-1.404c-.404-.41-.693-1.044-.758-1.692-.065-.65.104-1.168.415-1.48l-1.414-1.414Zm.333 5.99.02.02 1.415-1.414-.01-.01-1.425 1.404Zm10.274-6.697 2.121 2.121 1.414-1.414-2.121-2.121-1.414 1.414Zm-.707 4.95-2.122-2.122-1.414 1.415 2.121 2.12 1.415-1.413Zm-2.122-4.95a2 2 0 0 1 2.829 0l1.414-1.414a4 4 0 0 0-5.657 0l1.414 1.414Zm-1.414-1.414a4 4 0 0 0 0 5.657l1.414-1.415a2 2 0 0 1 0-2.828l-1.414-1.414Zm-18.385 4.242 7.071 7.071 1.415-1.414-7.072-7.071-1.414 1.414Zm7.071 7.071 4.95 4.95 1.414-1.414-4.95-4.95-1.414 1.414Zm8.195 17.437L15 37.37l-.518 1.932 10.5 2.813.517-1.932ZM13.585 34.92a2 2 0 0 1 2.45-1.414l.517-1.932a4 4 0 0 0-4.9 2.829l1.933.517Zm-1.932-.517a4 4 0 0 0 2.828 4.899L15 37.37a2 2 0 0 1-1.414-2.45l-1.932-.517ZM34.98 14.968l8.485 8.485 1.414-1.414-8.485-8.485-1.414 1.414Zm8.485 8.485c.817.817 2.392 2.686 2.52 7.34l2-.055c-.143-5.2-1.952-7.545-3.105-8.699l-1.415 1.414Zm3.657 12.607-6.927 6.927 1.414 1.415 6.927-6.928-1.414-1.414Zm-11.546 5.923c-1.095.056-2.772.032-4.42-.135-1.686-.172-3.184-.481-4.024-.919l-.925 1.773c1.205.629 3.039.961 4.746 1.135 1.747.178 3.526.205 4.725.143l-.102-1.997Zm2.675 1.005c-.72-.72-1.705-1.055-2.675-1.005l.102 1.997c.453-.023.871.135 1.158.422l1.415-1.415Zm1.944 0a1.375 1.375 0 0 1-1.944 0l-1.415 1.414a3.375 3.375 0 0 0 4.773 0l-1.414-1.415Zm6.927-9.514a1.828 1.828 0 0 1 0 2.586l1.414 1.414a3.828 3.828 0 0 0 0-5.414l-1.414 1.414Zm-1.137-2.68c.028.99.415 1.958 1.137 2.68l1.414-1.414a1.938 1.938 0 0 1-.551-1.322l-2 .055Zm-29.952 2.712 2.55.684.518-1.932-2.55-.684-.518 1.932Zm2.446.65 2.389.93.725-1.864-2.388-.93-.726 1.863Zm8.016-19.188 2.121 2.122 1.414-1.415-2.121-2.121-1.414 1.414Zm-4.95 3.536 1.045 1.045 1.414-1.415-1.045-1.044-1.414 1.414Zm1.045 1.045 1.43 1.43 1.414-1.415-1.43-1.43-1.414 1.415Zm1.43 1.43 2.475 2.474 1.414-1.414-2.475-2.475-1.414 1.415Zm-3.152 14.106c1.16.452 2.111-1.005 1.23-1.885l-1.413 1.414c-.65-.65.052-1.726.908-1.392l-.725 1.863Zm4.111 7.03c.369.099.66.291 1.228.587l.925-1.773c-.366-.19-.986-.572-1.635-.746l-.518 1.932ZM7.404 15.675a2 2 0 0 1 2.828 0l1.415-1.414a4 4 0 0 0-5.657 0l1.414 1.414ZM5.99 14.261a4 4 0 0 0 0 5.657l1.414-1.414a2 2 0 0 1 0-2.829L5.99 14.261Z"/></g><path stroke="#fff" stroke-linecap="round" stroke-width="2" d="m26.414 31.485 6.364 6.364M30.656 27.243l6.364 6.364M34.899 23l6.364 6.364"/><defs><filter id="a" width="52.844" height="43.129" x=".816" y="10.261" color-interpolation-filters="sRGB" filterUnits="userSpaceOnUse"><feFlood flood-opacity="0" result="BackgroundImageFix"/><feColorMatrix in="SourceAlpha" result="hardAlpha" values="0 0 0 0 0 0 0 0 0 0 0 0 0 0 0 0 0 0 127 0"/><feOffset dy="4"/><feGaussianBlur stdDeviation="2"/><feComposite in2="hardAlpha" operator="out"/><feColorMatrix values="0 0 0 0 0 0 0 0 0 0 0 0 0 0 0 0 0 0 0.25 0"/><feBlend in2="BackgroundImageFix" result="effect1_dropShadow_1041_14874"/><feBlend in="SourceGraphic" in2="effect1_dropShadow_1041_14874" result="shape"/></filter></defs></svg>
